X: 1
T: (It Is a) Tree of Life   [Em]
M: C
L: 1/8
K: Em
BBB |\
"Em"E2E2 "G"G2G2 | "Am"A2AB- "B"BBBB | "Em"E2E2 "G"G2G2 | "Am"z2A2 "B"B4 |
"Em"E2E2 "G"G2G2 | "Am"A2AB- "B"BBBB | "Em"E2E2 "G"G2G2 | "Am"z2A2 "B"B4 ||
|:\
"Em"z2e2 "D"d4 | "Am"cBAB- "B"BBBB | "Em"z2e2 "D"d4 | "Am"cBA"B"B- B2z2 :|
